public/logos/protect-ai.svg

<svg fill="none" height="245" viewBox="0 0 1822 245" width="1822" xmlns="http://www.w3.org/2000/svg"><g fill="#fff"><path d="m94.4258 0c2.4511.00003314 4.9024.526147 7.1822 1.57129l77.202 35.42381c6.118 2.8069 10.042 8.9205 10.042 15.6582v93.3627c0 19.766-9.569 40.617-26.937 58.713-16.054 16.717-38.063 30.382-61.9697 38.474-1.7873.605-3.6534.907-5.5195.907-1.8663 0-3.7331-.302-5.5205-.907-23.9134-8.092-45.9148-21.757-61.9688-38.474-17.36837-18.096-26.9364654-38.947-26.9365-58.713v-93.3627c0-6.7311 3.92305-12.8513 10.041-15.6582l77.2022-35.42381c2.2802-1.045154 4.7314-1.57129 7.1826-1.57129zm.001 17.2285-77.2022 35.4238v93.3627c0 31.776 33.2981 66.011 77.2022 80.867v-.001c43.9032-14.863 77.2012-49.091 77.2012-80.866v-93.3627zm-.001 87.4535h-64.9063l-3.5478-20.5756h68.4541v-66.8779h.001v66.8779h68.4672l-3.548 20.5756h-64.9192v122.199h-.001zm-26.4883 15.808 14.9365 87.289c-4.3633-1.965-8.5363-4.148-12.4922-6.508l-13.8203-80.781zm50.6125 80.367c-3.956 2.4-8.142 4.609-12.512 6.607l14.884-86.986h11.382zm-74.5666-80.373 12.2432 71.558c-5.1192-4.128-9.7-8.578-13.6495-13.252l-9.9755-58.306zm102.4496 57.372c-3.943 4.792-8.543 9.361-13.708 13.608l12.143-70.98h11.382z"/><path d="m287.607 198.754v-153.3976h84.28c44.311 0 59.734 18.6883 59.734 54.9666v2.893c0 35.2-15.423 54.099-59.734 54.099h-54.084v41.432h-30.189zm81.888-70.112c22.369 0 31.931-4.779 31.931-25.637v-2.675c0-21.9421-9.122-26.0702-31.931-26.0702h-51.698v54.3882h51.698z"/><path d="m639.273 145.956v-47.5849c0-32.591 15.424-53.0147 51.481-53.0147h55.825c36.058 0 51.481 20.4237 51.481 53.0147v47.5849c0 32.374-15.423 52.798-51.481 52.798h-55.825c-36.057 0-51.481-20.424-51.481-52.798zm107.3 23.901c14.555 0 21.285-4.128 21.285-22.816v-49.7545c0-18.9052-6.086-23.0333-21.285-23.0333h-55.825c-14.99 0-21.285 4.1281-21.285 23.0333v49.7545c0 18.688 6.735 22.816 21.285 22.816z"/><path d="m871.102 198.754v-124.277h-52.348v-29.1137h134.886v29.1137h-52.348v124.277z"/><path d="m980.801 198.754v-153.3976h127.239l-4.98 28.8968h-92.29v33.4588h83.36v26.728h-83.36v35.417h92.29l4.98 28.897z"/><path d="m1356.06 198.754v-124.277h-52.35v-29.1137h134.89v29.1137h-52.35v124.277z"/><path d="m1821.14 74.4702v-29.1138h-41.51-30.19-41.51v29.1138h41.51v95.1638h-41.51v29.12h41.51 30.19 41.51v-29.12h-41.51v-95.1638z"/><path d="m1610.68 45.3564h-31.84l-73.98 153.3906h33.67l12.35-26.504h87.87l12.03 26.504h33.63zm-48.5 102.1186 32.8-70.6121 32.36 70.6121z"/><path d="m609.727 102.138v-1.374c0-36.7193-16.941-55.4076-61.469-55.4076h-84.279v153.3906h30.189v-42.083h53.433l25.917 42.083h34.928l-30.433-45.126c23.244-6.955 31.714-24.986 31.714-51.496zm-63.855 26.504h-51.698v-54.3888h51.698c22.81 0 31.931 4.1281 31.931 26.0698v2.676c0 20.857-9.555 25.636-31.931 25.636z"/><path d="m1253.1 139.416v7.625c0 18.681-6.73 22.816-21.28 22.816h-48.44c-14.56 0-21.29-4.128-21.29-22.816v-49.7545c0-18.9052 6.31-23.0333 21.29-23.0333h48.44c15.2 0 21.28 4.1281 21.28 23.0333v5.2855h30.19v-4.2009c0-32.591-15.42-53.0147-51.47-53.0147h-48.44c-36.06 0-51.48 20.4237-51.48 53.0147v47.5849c0 32.374 15.42 52.798 51.48 52.798h48.44c36.06 0 51.47-20.424 51.47-52.798v-6.54z"/></g></svg>

<svg width="1822" height="245" viewBox="0 0 1822 245" fill="none" xmlns="http://www.w3.org/2000/svg">
<path d="M94.4258 0C96.8769 3.31362e-05 99.3282 0.526147 101.608 1.57129L178.81 36.9951C184.928 39.802 188.852 45.9156 188.852 52.6533V146.016C188.852 165.782 179.283 186.633 161.915 204.729C145.861 221.446 123.852 235.111 99.9453 243.203C98.158 243.808 96.2919 244.11 94.4258 244.11C92.5595 244.11 90.6927 243.808 88.9053 243.203C64.9919 235.111 42.9905 221.446 26.9365 204.729C9.56813 186.633 3.46009e-05 165.782 0 146.016V52.6533C0 45.9222 3.92305 39.802 10.041 36.9951L87.2432 1.57129C89.5234 0.526136 91.9746 0 94.4258 0ZM94.4268 17.2285L17.2246 52.6523V146.015C17.2246 177.791 50.5227 212.026 94.4268 226.882V226.881C138.33 212.018 171.628 177.79 171.628 146.015V52.6523L94.4268 17.2285ZM94.4258 104.682H29.5195L25.9717 84.1064H94.4258V17.2285H94.4268V84.1064H162.894L159.346 104.682H94.4268V226.881H94.4258V104.682ZM67.9375 120.49L82.874 207.779C78.5107 205.814 74.3377 203.631 70.3818 201.271L56.5615 120.49H67.9375ZM118.55 200.857C114.594 203.257 110.408 205.466 106.038 207.464L120.922 120.478H132.304L118.55 200.857ZM43.9834 120.484L56.2266 192.042C51.1074 187.914 46.5266 183.464 42.5771 178.79L32.6016 120.484H43.9834ZM146.433 177.856C142.49 182.648 137.89 187.217 132.725 191.464L144.868 120.484H156.25L146.433 177.856Z" fill="white"/>
<path d="M287.607 198.754V45.3564H371.887C416.198 45.3564 431.621 64.0447 431.621 100.323V103.216C431.621 138.416 416.198 157.315 371.887 157.315H317.803V198.747H287.614L287.607 198.754ZM369.495 128.642C391.864 128.642 401.426 123.863 401.426 103.005V100.33C401.426 78.3879 392.304 74.2598 369.495 74.2598H317.797V128.648H369.495V128.642Z" fill="white"/>
<path d="M639.273 145.956V98.3711C639.273 65.7801 654.697 45.3564 690.754 45.3564H746.579C782.637 45.3564 798.06 65.7801 798.06 98.3711V145.956C798.06 178.33 782.637 198.754 746.579 198.754H690.754C654.697 198.754 639.273 178.33 639.273 145.956ZM746.573 169.857C761.128 169.857 767.858 165.729 767.858 147.041V97.2865C767.858 78.3813 761.772 74.2532 746.573 74.2532H690.748C675.758 74.2532 669.463 78.3813 669.463 97.2865V147.041C669.463 165.729 676.198 169.857 690.748 169.857H746.573Z" fill="white"/>
<path d="M871.102 198.754V74.477H818.754V45.3633H953.64V74.477H901.292V198.754H871.102Z" fill="white"/>
<path d="M980.801 198.754V45.3564H1108.04L1103.06 74.2532H1010.77V107.712H1094.13V134.44H1010.77V169.857H1103.06L1108.04 198.754H980.801Z" fill="white"/>
<path d="M1356.06 198.754V74.477H1303.71V45.3633H1438.6V74.477H1386.25V198.754H1356.06Z" fill="white"/>
<path d="M1821.14 74.4702V45.3564H1779.63H1749.44H1707.93V74.4702H1749.44V169.634H1707.93V198.754H1749.44H1779.63H1821.14V169.634H1779.63V74.4702H1821.14Z" fill="white"/>
<path d="M1610.68 45.3564H1578.84L1504.86 198.747H1538.53L1550.88 172.243H1638.75L1650.78 198.747H1684.41L1610.68 45.3564ZM1562.18 147.475L1594.98 76.8629L1627.34 147.475H1562.18Z" fill="white"/>
<path d="M609.727 102.138V100.764C609.727 64.0447 592.786 45.3564 548.258 45.3564H463.979V198.747H494.168V156.664H547.601L573.518 198.747H608.446L578.013 153.621C601.257 146.666 609.727 128.635 609.727 102.125V102.138ZM545.872 128.642H494.174V74.2532H545.872C568.682 74.2532 577.803 78.3813 577.803 100.323V102.999C577.803 123.856 568.248 128.635 545.872 128.635V128.642Z" fill="white"/>
<path d="M1253.1 139.416V147.041C1253.1 165.722 1246.37 169.857 1231.82 169.857H1183.38C1168.82 169.857 1162.09 165.729 1162.09 147.041V97.2865C1162.09 78.3813 1168.4 74.2532 1183.38 74.2532H1231.82C1247.02 74.2532 1253.1 78.3813 1253.1 97.2865V102.572H1283.29V98.3711C1283.29 65.7801 1267.87 45.3564 1231.82 45.3564H1183.38C1147.32 45.3564 1131.9 65.7801 1131.9 98.3711V145.956C1131.9 178.33 1147.32 198.754 1183.38 198.754H1231.82C1267.88 198.754 1283.29 178.33 1283.29 145.956V139.416H1253.1Z" fill="white"/>
</svg>
